src/assets/DuplicateIcon24.svg

<svg
  width="24"
  height="24"
  viewBox="0 0 24 24"
  xmlns="http://www.w3.org/2000/svg"
>
  <path
    fill-rule="evenodd"
    clip-rule="evenodd"
    d="M7.26756 5H18C18.5523 5 19 5.44772 19 6V16.7324C19.5978 16.3866 20 15.7403 20 15V6C20 4.89543 19.1046 4 18 4H9C8.25972 4 7.61337 4.4022 7.26756 5ZM6 7H15C16.1046 7 17 7.89543 17 9V18C17 19.1046 16.1046 20 15 20H6C4.89543 20 4 19.1046 4 18V9C4 7.89543 4.89543 7 6 7ZM5 9C5 8.44772 5.44772 8 6 8H15C15.5523 8 16 8.44772 16 9V18C16 18.5523 15.5523 19 15 19H6C5.44772 19 5 18.5523 5 18V9ZM11 14H13.5C13.7761 14 14 13.7761 14 13.5C14 13.2239 13.7761 13 13.5 13H11V10.5C11 10.2239 10.7761 10 10.5 10C10.2239 10 10 10.2239 10 10.5V13H7.5C7.22386 13 7 13.2239 7 13.5C7 13.7761 7.22386 14 7.5 14H10V16.5C10 16.7761 10.2239 17 10.5 17C10.7761 17 11 16.7761 11 16.5V14Z"
    fill="currentColor"
  ></path>
</svg>

<svg
  xmlns="http://www.w3.org/2000/svg"
  width="24"
  height="24"
  fill="none"
  viewBox="0 0 24 24"
>
  <path
    fill="currentColor"
    fill-rule="evenodd"
    d="M7.268 5H18a1 1 0 0 1 1 1v10.732A2 2 0 0 0 20 15V6a2 2 0 0 0-2-2H9a2 2 0 0 0-1.732 1M6 7h9a2 2 0 0 1 2 2v9a2 2 0 0 1-2 2H6a2 2 0 0 1-2-2V9a2 2 0 0 1 2-2M5 9a1 1 0 0 1 1-1h9a1 1 0 0 1 1 1v9a1 1 0 0 1-1 1H6a1 1 0 0 1-1-1zm6 5h2.5a.5.5 0 0 0 0-1H11v-2.5a.5.5 0 0 0-1 0V13H7.5a.5.5 0 0 0 0 1H10v2.5a.5.5 0 0 0 1 0z"
    clip-rule="evenodd"
  ></path>
</svg>
